X: 20447
T: John Joe Harnett's
R: slide
M: 12/8
K: Adorian
|:EFG|ABA e2 d d2 B G2 B|ABA e2 d def gdB|
ABA e2 d d2 B G2 g|efg e2 d B2 A:|
|:ABd|e2 d e2 f g2 f e2 d|Bcd e2 f g3 g2 a|
[1 bag agf gfe fed|efg e2 d B2 A:|
[2 b2 g a2 f g2 e f2 d|efg e2 d A3||

